!!!SOCIAL_FUNCTION:	songs used in the treatment of the sick
!!!PDT:	1922
!!!OTL: No_57_Song_Used_in_Treatment_of_Sick_(f).krn
!!!REG: Southwest
!!!LANG: Non-Tone
!!!LING_GROUP: Uto-Aztecan
**kern
*staff1
=1-
*clefF4
*k[b-e-]
*M3/4
2.B-\
=2
2.B-\
=3||
*M2/4
8c\L
8B-\J
[4c\
=4
4c\]
8B-\L
16B-\L
16B-\JJ
=5
[2B-\
=6
4B-\]
4B-\
=7
4F\
4F\
=8
2F\
=9
8G\L
8F\J
[4G\
=10
4G\]
4F\
=11||
*M3/4
8.G\L
16F\Jk
4.G\
8F\
=12
2.F\
=13
[2F\
8F\L]
8F\J
=14
2.F\
==
*-
